X: 22137
T: Kusnacht
R: waltz
M: 3/4
K: Amajor
|:E2e3E|E2d3A|cee dcB|A2F3E|
DEF GAB|c2A2E2|DEF GAB|ABc BcA|
E2e3E|E2d3A|cee dcB|A2F3E|
DEF GAB|c2A2E2|d2cABG|1 A3BAF:|2 A3Bcd||
|:e2a3g|gec3B|ABc def|e/f/e c2A2|
DEF GAB|c2A2E2|DEF GAB|ABcB cd|
e2a3g|gec3B|ABc def|e/f/e c2A2|
DEF GAB|c2A2E2|d2 cABG|1 A3Bcd:|2 A6||

